X: 3076
Q:"Reel."
M: C
L: 1/8
K: Em
uB |\
|:\
(Be)ee (ge)ee | (be)ee (ge)ee |\
[1 (fd)dd (Ad)dd | FGEF D2d2 :|\
[2 fgef d2(d^c) | BAGF E3 |]


